X:1
T:There Is a Habitation
T:There Is a Habitation
T:James Holmes Rosecrans
T:Love Humphreys Jameson, 1882
T:Public Domain Courtesy of the Cyber Hymnal™
C:James Holmes Rosecrans
Z:Public Domain
Z:Courtesy of the Cyber Hymnal™
%%score ( 1 2 ) ( 3 4 )
L:1/8
Q:1/4=105
M:4/4
K:Eb
V:1 treble 
V:2 treble 
V:3 bass 
V:4 bass 
V:1
 (EG) | [EB]3 [Ec] [EB]2 [EG]2 | [DF]2 E4 (GF) | E2 [EF]2 [EG]2 [GB]2 | [Ac]6 (ec) | %5
w: 1.~There *|is a ha- bi-|ta- tion, Built *|by the liv- ing|God, For *|
w: 2.~A *|ci- ty with foun-|da- tions, Firm *|as th’e- ter- nal|throne; Nor *|
w: 3.~No *|night is there, no|sor- row, No *|death, and no de-|cay; No *|
w: 4.~With- *|in its pear- ly|por- tals, An- *|gel- ic ar- mies|sing, With *|
 [GB]3 [Ac] [GB]2 [EG]2 | [DF]2 E4 [GB]2 | [Ac]2 [EA]2 [EG]2 [DF]2 | E6 ||"^Refrain" B2 | %10
w: all of ev- ery|na- tion, Who|seek that grand a-|bode.||
w: wars, nor de- so-|la- tions Shall|ev- er move a|stone.|O|
w: yes- ter- day, no|mor- row— But|one e- ter- nal|day.||
w: glo- ri- fied im-|mor- tals, The|prais- es of its|king.||
 [Ge]4 [Ae]4 | [Ge]2 [GB]4 (GF) | E2 [B,F]2 [EG]2 [E=A]2 | [DB]4 z2 [AB]2 | [Ge]4 [Ae]4 | %15
w: |||||
w: Si- on,|Si- on, I *|long thy gates to|see; O|Si- on,|
w: |||||
w: |||||
 [Ge]2 [GB]4 (GF) | E2 ([CF][FA]) !fermata![EG]2 !fermata![DF]2 | E6 |] %18
w: |||
w: Si- on, When *|shall I * dwell in|thee?|
w: |||
w: |||
V:2
 E2 | x8 | x2 E4 E2 | E2 x6 | x6 A2 | x8 | x2 E4 x2 | x8 | E6 || (BA) | x8 | x6 E2 | E2 x6 | x8 | %14
 x8 | x6 E2 | E2 x6 | E6 |] %18
V:3
 (G,B,) | [E,G,]3 [E,A,] [E,G,]2 [E,B,]2 | [B,,A,]2 [E,G,]4 (B,A,) | %3
w: ~ *|~ ~ ~ ~|~ ~ ~ *|
 [E,G,]2 [E,A,]2 [E,B,]2 [E,E]2 | [A,E]6 (CE) | [E,E]3 [E,E] [E,E]2 [E,B,]2 | %6
w: ~ ~ ~ ~|~ ~ *|~ ~ ~ ~|
 [B,,A,]2 [E,G,]4 [E,E]2 | [A,E]2 [A,C]2 B,2 [B,,A,]2 | [E,G,]6 || B,2 | %10
w: ~ ~ ~|~ ~ ~ ~|~|O|
 [E,B,]2 [E,B,]2 [A,C]2 [A,C]2 | [E,B,]2 [E,E]4 (B,A,) | [E,G,]2 [D,B,]2 [C,G,]2 F,2 | %13
w: Si- on, love- ly|Si- on, ~ *|~ ~ ~ ~|
 F,4 G,2 [F,B,]2 | [E,B,]2 [E,B,]2 [A,C]2 [A,C]2 | [E,B,]2 [E,E]4 (B,A,) | %16
w: ~ O love-|ly Si- on, love-|ly Si- on *|
 [E,G,]2 (A,C) !fermata![B,,B,]2 !fermata![B,,A,]2 | [E,G,]6 |] %18
w: ||
V:4
 E,2 | x8 | x6 E,2 | x8 | x6 A,2 | x8 | x8 | x4 B,2 x2 | x6 || B,2 | x8 | x6 E,2 | x6 F,2 | %13
 B,,2 A,2 x4 | x8 | x6 E,2 | x2 A,,2 x4 | x6 |] %18

